static/logos/aws.svg

<svg width="304" height="182" viewBox="0 0 304 182" fill="none" xmlns="http://www.w3.org/2000/svg">
<path d="M86.4001 66.3996C86.4001 70.0996 86.8001 73.0996 87.5001 75.2996C88.3001 77.4996 89.3001 79.8996 90.7001 82.4996C91.2001 83.2996 91.4001 84.0996 91.4001 84.7996C91.4001 85.7996 90.8001 86.7996 89.5001 87.7996L83.2001 91.9996C82.3001 92.5996 81.4001 92.8996 80.6001 92.8996C79.6001 92.8996 78.6001 92.3996 77.6001 91.4996C76.2001 89.9996 75.0001 88.3996 74.0001 86.7996C73.0001 85.0996 72.0001 83.1996 70.9001 80.8996C63.1001 90.0996 53.3001 94.6996 41.5001 94.6996C33.1001 94.6996 26.4001 92.2996 21.5001 87.4996C16.6001 82.6996 14.1001 76.2996 14.1001 68.2996C14.1001 59.7996 17.1001 52.8996 23.2001 47.6996C29.3001 42.4996 37.4001 39.8996 47.7001 39.8996C51.1001 39.8996 54.6001 40.1996 58.3001 40.6996C62.0001 41.1996 65.8001 41.9996 69.8001 42.8996V35.5996C69.8001 27.9996 68.2001 22.6996 65.1001 19.5996C61.9001 16.4996 56.5001 14.9996 48.8001 14.9996C45.3001 14.9996 41.7001 15.3996 38.0001 16.2996C34.3001 17.1996 30.7001 18.2996 27.2001 19.6996C25.6001 20.3996 24.4001 20.7996 23.7001 20.9996C23.0001 21.1996 22.5001 21.2996 22.1001 21.2996C20.7001 21.2996 20.0001 20.2996 20.0001 18.1996V13.2996C20.0001 11.6996 20.2001 10.4996 20.7001 9.79961C21.2001 9.09961 22.1001 8.39961 23.5001 7.69961C27.0001 5.89961 31.2001 4.39961 36.1001 3.19961C41.0001 1.89961 46.2001 1.29961 51.7001 1.29961C63.6001 1.29961 72.3001 3.99961 77.9001 9.39961C83.4001 14.7996 86.2001 22.9996 86.2001 33.9996V66.3996H86.4001ZM45.8001 81.5996C49.1001 81.5996 52.5001 80.9996 56.1001 79.7996C59.7001 78.5996 62.9001 76.3996 65.6001 73.3996C67.2001 71.4996 68.4001 69.3996 69.0001 66.9996C69.6001 64.5996 70.0001 61.6996 70.0001 58.2996V54.0996C67.1001 53.3996 64.0001 52.7996 60.8001 52.3996C57.6001 51.9996 54.5001 51.7996 51.4001 51.7996C44.7001 51.7996 39.8001 53.0996 36.5001 55.7996C33.2001 58.4996 31.6001 62.2996 31.6001 67.2996C31.6001 71.9996 32.8001 75.4996 35.3001 77.8996C37.7001 80.3996 41.2001 81.5996 45.8001 81.5996ZM126.1 92.3996C124.3 92.3996 123.1 92.0996 122.3 91.3996C121.5 90.7996 120.8 89.3996 120.2 87.4996L96.7001 10.1996C96.1001 8.19961 95.8001 6.89961 95.8001 6.19961C95.8001 4.59961 96.6001 3.69961 98.2001 3.69961H108C109.9 3.69961 111.2 3.99961 111.9 4.69961C112.7 5.29961 113.3 6.69961 113.9 8.59961L130.7 74.7996L146.3 8.59961C146.8 6.59961 147.4 5.29961 148.2 4.69961C149 4.09961 150.4 3.69961 152.2 3.69961H160.2C162.1 3.69961 163.4 3.99961 164.2 4.69961C165 5.29961 165.7 6.69961 166.1 8.59961L181.9 75.5996L199.2 8.59961C199.8 6.59961 200.5 5.29961 201.2 4.69961C202 4.09961 203.3 3.69961 205.1 3.69961H214.4C216 3.69961 216.9 4.49961 216.9 6.19961C216.9 6.69961 216.8 7.19961 216.7 7.79961C216.6 8.39961 216.4 9.19961 216 10.2996L191.9 87.5996C191.3 89.5996 190.6 90.8996 189.8 91.4996C189 92.0996 187.7 92.4996 186 92.4996H177.4C175.5 92.4996 174.2 92.1996 173.4 91.4996C172.6 90.7996 171.9 89.4996 171.5 87.4996L156 22.9996L140.6 87.3996C140.1 89.3996 139.5 90.6996 138.7 91.3996C137.9 92.0996 136.5 92.3996 134.7 92.3996H126.1ZM254.6 95.0996C249.4 95.0996 244.2 94.4996 239.2 93.2996C234.2 92.0996 230.3 90.7996 227.7 89.2996C226.1 88.3996 225 87.3996 224.6 86.4996C224.2 85.5996 224 84.5996 224 83.6996V78.5996C224 76.4996 224.8 75.4996 226.3 75.4996C226.9 75.4996 227.5 75.5996 228.1 75.7996C228.7 75.9996 229.6 76.3996 230.6 76.7996C234 78.2996 237.7 79.4996 241.6 80.2996C245.6 81.0996 249.5 81.4996 253.5 81.4996C259.8 81.4996 264.7 80.3996 268.1 78.1996C271.5 75.9996 273.3 72.7996 273.3 68.6996C273.3 65.8996 272.4 63.5996 270.6 61.6996C268.8 59.7996 265.4 58.0996 260.5 56.4996L246 51.9996C238.7 49.6996 233.3 46.2996 230 41.7996C226.7 37.3996 225 32.4996 225 27.2996C225 23.0996 225.9 19.3996 227.7 16.1996C229.5 12.9996 231.9 10.1996 234.9 7.99961C237.9 5.69961 241.3 3.99961 245.3 2.79961C249.3 1.59961 253.5 1.09961 257.9 1.09961C260.1 1.09961 262.4 1.19961 264.6 1.49961C266.9 1.79961 269 2.19961 271.1 2.59961C273.1 3.09961 275 3.59961 276.8 4.19961C278.6 4.79961 280 5.39961 281 5.99961C282.4 6.79961 283.4 7.59961 284 8.49961C284.6 9.29961 284.9 10.3996 284.9 11.7996V16.4996C284.9 18.5996 284.1 19.6996 282.6 19.6996C281.8 19.6996 280.5 19.2996 278.8 18.4996C273.1 15.8996 266.7 14.5996 259.6 14.5996C253.9 14.5996 249.4 15.4996 246.3 17.3996C243.2 19.2996 241.6 22.1996 241.6 26.2996C241.6 29.0996 242.6 31.4996 244.6 33.3996C246.6 35.2996 250.3 37.1996 255.6 38.8996L269.8 43.3996C277 45.6996 282.2 48.8996 285.3 52.9996C288.4 57.0996 289.9 61.7996 289.9 66.9996C289.9 71.2996 289 75.1996 287.3 78.5996C285.5 81.9996 283.1 84.9996 280 87.3996C276.9 89.8996 273.2 91.6996 268.9 92.9996C264.4 94.3996 259.7 95.0996 254.6 95.0996Z" fill="#37322e"/>
<path fill-rule="evenodd" clip-rule="evenodd" d="M273.5 143.7C240.6 168 192.8 180.9 151.7 180.9C94.1 180.9 42.2 159.6 2.99999 124.2C-0.100014 121.4 2.69999 117.6 6.39999 119.8C48.8 144.4 101.1 159.3 155.2 159.3C191.7 159.3 231.8 151.7 268.7 136.1C274.2 133.6 278.9 139.7 273.5 143.7Z" fill="#37322e"/>
<path fill-rule="evenodd" clip-rule="evenodd" d="M287.2 128.099C283 122.699 259.4 125.499 248.7 126.799C245.5 127.199 245 124.399 247.9 122.299C266.7 109.099 297.6 112.899 301.2 117.299C304.8 121.799 300.2 152.699 282.6 167.499C279.9 169.799 277.3 168.599 278.5 165.599C282.5 155.699 291.4 133.399 287.2 128.099Z" fill="#37322e"/>
</svg>

<svg fill="none" xmlns="http://www.w3.org/2000/svg" viewBox="0 0 304 182"><path d="M86.4 66.4c0 3.7.4 6.7 1.1 8.9.8 2.2 1.8 4.6 3.2 7.2.5.8.7 1.6.7 2.3 0 1-.6 2-1.9 3L83.2 92c-.9.6-1.8.9-2.6.9-1 0-2-.5-3-1.4a31 31 0 01-3.6-4.7l-3.1-5.9a37 37 0 01-29.4 13.8c-8.4 0-15.1-2.4-20-7.2a25.7 25.7 0 01-7.4-19.2c0-8.5 3-15.4 9.1-20.6a36.4 36.4 0 0124.5-7.8c3.4 0 6.9.3 10.6.8 3.7.5 7.5 1.3 11.5 2.2v-7.3c0-7.6-1.6-12.9-4.7-16-3.2-3.1-8.6-4.6-16.3-4.6-3.5 0-7.1.4-10.8 1.3A79.7 79.7 0 0023.7 21l-1.6.3c-1.4 0-2.1-1-2.1-3.1v-4.9c0-1.6.2-2.8.7-3.5.5-.7 1.4-1.4 2.8-2.1a60.6 60.6 0 0128.2-6.4c11.9 0 20.6 2.7 26.2 8.1 5.5 5.4 8.3 13.6 8.3 24.6v32.4h.2zM45.8 81.6c3.3 0 6.7-.6 10.3-1.8 3.6-1.2 6.8-3.4 9.5-6.4 1.6-1.9 2.8-4 3.4-6.4.6-2.4 1-5.3 1-8.7v-4.2a83.5 83.5 0 00-18.6-2.3c-6.7 0-11.6 1.3-14.9 4-3.3 2.7-4.9 6.5-4.9 11.5 0 4.7 1.2 8.2 3.7 10.6 2.4 2.5 5.9 3.7 10.5 3.7zm80.3 10.8c-1.8 0-3-.3-3.8-1-.8-.6-1.5-2-2.1-3.9L96.7 10.2c-.6-2-.9-3.3-.9-4 0-1.6.8-2.5 2.4-2.5h9.8c1.9 0 3.2.3 3.9 1 .8.6 1.4 2 2 3.9l16.8 66.2 15.6-66.2c.5-2 1.1-3.3 1.9-3.9.8-.6 2.2-1 4-1h8c1.9 0 3.2.3 4 1 .8.6 1.5 2 1.9 3.9l15.8 67 17.3-67c.6-2 1.3-3.3 2-3.9.8-.6 2.1-1 3.9-1h9.3c1.6 0 2.5.8 2.5 2.5l-.2 1.6-.7 2.5-24.1 77.3c-.6 2-1.3 3.3-2.1 3.9-.8.6-2.1 1-3.8 1h-8.6c-1.9 0-3.2-.3-4-1-.8-.7-1.5-2-1.9-4L156 23l-15.4 64.4c-.5 2-1.1 3.3-1.9 4-.8.7-2.2 1-4 1h-8.6zm128.5 2.7a66.2 66.2 0 01-26.9-5.8c-1.6-.9-2.7-1.9-3.1-2.8a7 7 0 01-.6-2.8v-5.1c0-2.1.8-3.1 2.3-3.1l1.8.3 2.5 1a54.4 54.4 0 0022.9 4.7 27 27 0 0014.6-3.3c3.4-2.2 5.2-5.4 5.2-9.5 0-2.8-.9-5.1-2.7-7a25 25 0 00-10.1-5.2L246 52a30.5 30.5 0 01-16-10.2A23.8 23.8 0 01234.9 8c3-2.3 6.4-4 10.4-5.2a43.6 43.6 0 0119.3-1.3l6.5 1.1 5.7 1.6c1.8.6 3.2 1.2 4.2 1.8 1.4.8 2.4 1.6 3 2.5.6.8.9 1.9.9 3.3v4.7c0 2.1-.8 3.2-2.3 3.2-.8 0-2.1-.4-3.8-1.2a45.7 45.7 0 00-19.2-3.9c-5.7 0-10.2.9-13.3 2.8-3.1 1.9-4.7 4.8-4.7 8.9 0 2.8 1 5.2 3 7.1 2 1.9 5.7 3.8 11 5.5l14.2 4.5a30.4 30.4 0 0115.5 9.6c3.1 4.1 4.6 8.8 4.6 14 0 4.3-.9 8.2-2.6 11.6a26.9 26.9 0 01-7.3 8.8 32.2 32.2 0 01-11.1 5.6 47.6 47.6 0 01-14.3 2.1z" fill="#37322e"/><path fill-rule="evenodd" clip-rule="evenodd" d="M273.5 143.7c-32.9 24.3-80.7 37.2-121.8 37.2A220.3 220.3 0 013 124.2c-3.1-2.8-.3-6.6 3.4-4.4a299.9 299.9 0 00148.8 39.5 297 297 0 00113.5-23.2c5.5-2.5 10.2 3.6 4.8 7.6z" fill="#37322e"/><path fill-rule="evenodd" clip-rule="evenodd" d="M287.2 128.1c-4.2-5.4-27.8-2.6-38.5-1.3-3.2.4-3.7-2.4-.8-4.5 18.8-13.2 49.7-9.4 53.3-5 3.6 4.5-1 35.4-18.6 50.2-2.7 2.3-5.3 1.1-4.1-1.9 4-9.9 12.9-32.2 8.7-37.5z" fill="#37322e"/></svg>
